branches/nugui/src/gui/icons/measure_torsionsel.svg

<?xml version="1.0" encoding="UTF-8" standalone="no"?>
<!-- Created with Inkscape (http://www.inkscape.org/) -->

<svg
   xmlns:dc="http://purl.org/dc/elements/1.1/"
   xmlns:cc="http://creativecommons.org/ns#"
   xmlns:rdf="http://www.w3.org/1999/02/22-rdf-syntax-ns#"
   xmlns:svg="http://www.w3.org/2000/svg"
   xmlns="http://www.w3.org/2000/svg"
   xmlns:xlink="http://www.w3.org/1999/xlink"
   xmlns:inkscape="http://www.inkscape.org/namespaces/inkscape"
   version="1.0"
   width="100"
   height="100"
   id="svg2">
  <metadata
     id="metadata2566">
    <rdf:RDF>
      <cc:Work
         rdf:about="">
        <dc:format>image/svg+xml</dc:format>
        <dc:type
           rdf:resource="http://purl.org/dc/dcmitype/StillImage" />
      </cc:Work>
    </rdf:RDF>
  </metadata>
  <defs
     id="defs4">
    <radialGradient
       cx="58.01162"
       cy="63.345894"
       r="33.113495"
       fx="58.01162"
       fy="63.345894"
       id="radialGradient3568"
       xlink:href="#linearGradient3252"
       gradientUnits="userSpaceOnUse"
       gradientTransform="matrix(0.2134373,0,0,0.2134373,19.805211,5.9610473)" />
    <linearGradient
       x1="25.398125"
       y1="63.345894"
       x2="90.625114"
       y2="63.345894"
       id="linearGradient3566"
       xlink:href="#linearGradient3384"
       gradientUnits="userSpaceOnUse"
       gradientTransform="matrix(0.2688926,0.2688926,-0.2688926,0.2688926,38.227733,-8.4494346)" />
    <linearGradient
       id="linearGradient3187">
      <stop
         id="stop3189"
         style="stop-color:#cccdff;stop-opacity:1"
         offset="0" />
      <stop
         id="stop3191"
         style="stop-color:#cccdca;stop-opacity:0.33333334"
         offset="1" />
    </linearGradient>
    <linearGradient
       x1="3.5899789"
       y1="36.400818"
       x2="97.023521"
       y2="36.400818"
       id="linearGradient2257"
       xlink:href="#linearGradient3187"
       gradientUnits="userSpaceOnUse" />
    <linearGradient
       id="linearGradient3384">
      <stop
         id="stop3386"
         style="stop-color:#0000ff;stop-opacity:1"
         offset="0" />
      <stop
         id="stop3388"
         style="stop-color:#000000;stop-opacity:1"
         offset="1" />
    </linearGradient>
    <linearGradient
       id="linearGradient3252">
      <stop
         id="stop3254"
         style="stop-color:#ffffff;stop-opacity:1"
         offset="0" />
      <stop
         id="stop3256"
         style="stop-color:#7f7fff;stop-opacity:0"
         offset="1" />
    </linearGradient>
  </defs>
  <path
     d="m 89.731475,43.639521 c -21.201609,-0.01117 -37.04687,-0.01953 -66.532586,-0.03506 0.01467,-12.1087 14.929887,-21.928193 33.292882,-21.918523 18.362994,0.0097 33.254387,9.844883 33.239704,21.953583 z"
     inkscape:connector-curvature="0"
     id="path3830"
     style="fill:#e6e6e3;fill-opacity:1;fill-rule:evenodd;stroke:#e1e0e6;stroke-width:0.58449656px;stroke-linecap:butt;stroke-linejoin:miter;stroke-opacity:1" />
  <use
     transform="translate(-0.7619956,44.767246)"
     id="use2479"
     x="0"
     y="0"
     width="100"
     height="100"
     xlink:href="#path3830" />
  <path
     d="m 92.596291,22.962013 c 6.81e-4,3.87935 -3.143963,7.024536 -7.023313,7.024536 -3.87935,0 -7.023994,-3.145186 -7.023313,-7.024536 -6.81e-4,-3.879349 3.143963,-7.024544 7.023313,-7.024544 3.87935,0 7.023994,3.145195 7.023313,7.024544 l 0,0 z"
     inkscape:connector-curvature="0"
     id="path3876"
     style="fill:#e6e6e3;fill-opacity:1;fill-rule:evenodd;stroke:#e1e0e6;stroke-width:0.21534985px;stroke-linecap:butt;stroke-linejoin:miter;stroke-opacity:1" />
  <use
     transform="translate(-28.765336,21.907375)"
     id="use2473"
     x="0"
     y="0"
     width="100"
     height="100"
     xlink:href="#path3876" />
  <use
     transform="matrix(1.1602579,0,0,1.1602579,-71.625608,40.325402)"
     id="use2475"
     x="0"
     y="0"
     width="100"
     height="100"
     xlink:href="#path3876" />
  <use
     transform="matrix(1.1201934,0,0,1.1201934,-39.14604,64.771989)"
     id="use2477"
     x="0"
     y="0"
     width="100"
     height="100"
     xlink:href="#path3876" />
  <path
     d="M 28.628839,67.847727 C 55.161874,90.189634 55.16094,90.188844 55.16094,90.188844"
     inkscape:connector-curvature="0"
     id="path3824"
     style="fill:none;stroke:#e1e0e6;stroke-width:2.80033398;stroke-linecap:round;stroke-linejoin:miter;stroke-miterlimit:4;stroke-opacity:1;stroke-dasharray:5.60066808, 2.80033403;stroke-dashoffset:0" />
  <path
     d="M 85.037554,23.089242 C 55.710374,45.604133 55.711411,45.60334 55.711411,45.60334"
     inkscape:connector-curvature="0"
     id="path3826"
     style="fill:none;stroke:#e1e0e6;stroke-width:2.33361173;stroke-linecap:round;stroke-linejoin:miter;stroke-miterlimit:4;stroke-opacity:1;stroke-dasharray:4.6672234, 2.3336117;stroke-dashoffset:0" />
  <path
     d="m 56.566913,53.349558 c 0,27.47943 0,27.478467 0,27.478467"
     inkscape:connector-curvature="0"
     id="path3854"
     style="fill:#e6e6e3;fill-opacity:1;fill-rule:evenodd;stroke:#e1e0e6;stroke-width:2.80033398;stroke-linecap:round;stroke-linejoin:miter;stroke-miterlimit:4;stroke-opacity:1;stroke-dasharray:5.60066808, 2.80033403;stroke-dashoffset:0" />
  <path
     d="m 48.400909,46.421662 c 0,27.479426 0,27.478464 0,27.478464"
     inkscape:connector-curvature="0"
     id="path3818"
     style="fill:none;stroke:#000000;stroke-width:2.80033398;stroke-linecap:round;stroke-linejoin:miter;stroke-miterlimit:4;stroke-opacity:1;stroke-dasharray:5.60066808, 2.80033403;stroke-dashoffset:0" />
  <g
     transform="matrix(0.7197884,3.7935934e-4,-5.7530333e-4,0.4746339,12.123199,8.4299146)"
     id="g2239">
    <path
       d="m 96.52352,59.509204 c -29.455343,0 -51.469115,0 -92.433541,0 0,-25.511657 20.705113,-46.21677 46.21677,-46.21677 25.511657,0 46.216771,20.705113 46.216771,46.21677 z"
       inkscape:connector-curvature="0"
       id="path2241"
       style="fill:url(#linearGradient2257);fill-opacity:1;fill-rule:evenodd;stroke:#000000;stroke-width:1px;stroke-linecap:butt;stroke-linejoin:miter;stroke-opacity:1" />
    <path
       d="M 49.946865,59.191757 16.406253,44.970273 m 33.828912,13.928004 0.07159,-36.986598 M 50.611846,59.057108 84.207245,44.970273 M 87.000381,59.26463 49.946865,59.337502 13.613118,59.26463 M 24.360434,32.852106 50.10289,58.954052 36.264704,24.755004 m 28.084091,0 L 50.51061,58.954052 76.253065,32.852106"
       inkscape:connector-curvature="0"
       id="path2243"
       style="fill:none;stroke:#000000;stroke-width:0.64609098;stroke-linecap:round;stroke-linejoin:round;stroke-miterlimit:4;stroke-opacity:1;stroke-dasharray:none;stroke-dashoffset:0" />
    <text
       x="16.601501"
       y="32.732803"
       id="text2245"
       xml:space="preserve"
       style="font-size:6.36857796px;font-style:normal;font-weight:normal;fill:#000000;fill-opacity:1;stroke:none;font-family:Bitstream Vera Sans"><tspan
         x="16.601501"
         y="32.732803"
         id="tspan2247">45</tspan></text>
    <text
       x="45.530113"
       y="19.400709"
       id="text2249"
       xml:space="preserve"
       style="font-size:6.36857796px;font-style:normal;font-weight:normal;fill:#000000;fill-opacity:1;stroke:none;font-family:Bitstream Vera Sans"><tspan
         x="45.530113"
         y="19.400709"
         id="tspan2251">90</tspan></text>
    <text
       x="72.773872"
       y="32.981483"
       id="text2253"
       xml:space="preserve"
       style="font-size:6.36857796px;font-style:normal;font-weight:normal;fill:#000000;fill-opacity:1;stroke:none;font-family:Bitstream Vera Sans"><tspan
         x="72.773872"
         y="32.981483"
         id="tspan2255">135</tspan></text>
  </g>
  <use
     transform="translate(0.1904989,45.14824)"
     id="use2471"
     x="0"
     y="0"
     width="100"
     height="100"
     xlink:href="#g2239" />
  <path
     d="M 20.462842,60.919824 C 46.995877,83.261735 46.99494,83.260945 46.99494,83.260945"
     inkscape:connector-curvature="0"
     id="path3820"
     style="fill:none;stroke:#000000;stroke-width:2.80033398;stroke-linecap:round;stroke-linejoin:miter;stroke-miterlimit:4;stroke-opacity:1;stroke-dasharray:5.60066808, 2.80033403;stroke-dashoffset:0" />
  <path
     d="M 76.871553,16.161343 C 47.544371,38.676233 47.545408,38.675439 47.545408,38.675439"
     inkscape:connector-curvature="0"
     id="path3822"
     style="fill:none;stroke:#000000;stroke-width:2.33361173;stroke-linecap:round;stroke-linejoin:miter;stroke-miterlimit:4;stroke-opacity:1;stroke-dasharray:4.6672234, 2.3336117;stroke-dashoffset:0" />
  <g
     transform="matrix(0.5663055,0,0,0.5663055,56.64351,2.3132157)"
     id="g3558">
    <path
       d="m 49.066773,24.22879 c 0.0012,6.850275 -5.551709,12.404157 -12.401985,12.404157 -6.850275,0 -12.403184,-5.553882 -12.401985,-12.404157 -0.0012,-6.850276 5.55171,-12.404157 12.401985,-12.404157 6.850276,0 12.403184,5.553881 12.401985,12.404157 l 0,0 z"
       inkscape:connector-curvature="0"
       id="path3560"
       style="fill:#0000ff;fill-opacity:1;fill-rule:evenodd;stroke:#000000;stroke-width:0.38027155px;stroke-linecap:butt;stroke-linejoin:miter;stroke-opacity:1" />
    <path
       d="m 45.562914,32.95223 c -4.843029,4.844723 -12.696715,4.845411 -17.54059,0.0015 -4.843878,-4.843877 -4.843189,-12.697563 0.0015,-17.54059 4.843028,-4.844725 12.696714,-4.845413 17.540591,-0.0015 4.843875,4.843876 4.843187,12.697563 -0.0015,17.540591 l 0,0 z"
       inkscape:connector-curvature="0"
       id="path3562"
       style="opacity:0.71739131;fill:url(#linearGradient3566);fill-opacity:1;fill-rule:evenodd;stroke:none" />
    <path
       d="m 39.147988,19.481422 c 6.73e-4,3.844893 -3.11604,6.962154 -6.960935,6.962154 -3.844894,0 -6.961608,-3.117261 -6.960935,-6.962154 -6.73e-4,-3.844895 3.116041,-6.962154 6.960935,-6.962154 3.844895,0 6.961608,3.117259 6.960935,6.962154 l 0,0 z"
       inkscape:connector-curvature="0"
       id="path3564"
       style="fill:url(#radialGradient3568);fill-opacity:1;fill-rule:evenodd;stroke:none" />
  </g>
  <use
     transform="matrix(1.146903,0,0,1.146903,-69.759414,41.364044)"
     id="use2458"
     x="0"
     y="0"
     width="100"
     height="100"
     xlink:href="#g3558" />
  <use
     transform="matrix(1.146903,0,0,1.146903,-40.422581,64.604912)"
     id="use2460"
     x="0"
     y="0"
     width="100"
     height="100"
     xlink:href="#g3558" />
  <use
     transform="translate(-29.146334,21.716876)"
     id="use2456"
     x="0"
     y="0"
     width="100"
     height="100"
     xlink:href="#g3558" />
  <rect
     width="93.276093"
     height="93.536499"
     x="4.9849653"
     y="5.0202103"
     id="rect4726"
     style="fill:none;stroke:#282828;stroke-width:3.20253754;stroke-linecap:round;stroke-linejoin:round;stroke-miterlimit:4;stroke-opacity:1;stroke-dasharray:6.40507497, 3.20253749;stroke-dashoffset:0" />
  <rect
     width="93.46907"
     height="93.729485"
     x="1.8452083"
     y="1.8143114"
     id="rect4688"
     style="fill:none;stroke:#000000;stroke-width:3.20915413;stroke-linecap:round;stroke-linejoin:round;stroke-miterlimit:4;stroke-opacity:1;stroke-dasharray:6.41830834, 3.20915417;stroke-dashoffset:0" />
</svg>

<?xml version="1.0" encoding="UTF-8" standalone="no"?>
<!-- Created with Inkscape (http://www.inkscape.org/) -->
<svg
   xmlns:svg="http://www.w3.org/2000/svg"
   xmlns="http://www.w3.org/2000/svg"
   xmlns:xlink="http://www.w3.org/1999/xlink"
   version="1.0"
   width="100"
   height="100"
   id="svg2">
  <defs
     id="defs4">
    <radialGradient
       cx="58.01162"
       cy="63.345894"
       r="33.113495"
       fx="58.01162"
       fy="63.345894"
       id="radialGradient3568"
       xlink:href="#linearGradient3252"
       gradientUnits="userSpaceOnUse"
       gradientTransform="matrix(0.2134373,0,0,0.2134373,19.805211,5.9610473)" />
    <linearGradient
       x1="25.398125"
       y1="63.345894"
       x2="90.625114"
       y2="63.345894"
       id="linearGradient3566"
       xlink:href="#linearGradient3384"
       gradientUnits="userSpaceOnUse"
       gradientTransform="matrix(0.2688926,0.2688926,-0.2688926,0.2688926,38.227733,-8.4494346)" />
    <linearGradient
       id="linearGradient3187">
      <stop
         id="stop3189"
         style="stop-color:#cccdff;stop-opacity:1"
         offset="0" />
      <stop
         id="stop3191"
         style="stop-color:#cccdca;stop-opacity:0.33333334"
         offset="1" />
    </linearGradient>
    <linearGradient
       x1="3.5899789"
       y1="36.400818"
       x2="97.023521"
       y2="36.400818"
       id="linearGradient2257"
       xlink:href="#linearGradient3187"
       gradientUnits="userSpaceOnUse" />
    <linearGradient
       id="linearGradient3384">
      <stop
         id="stop3386"
         style="stop-color:#0000ff;stop-opacity:1"
         offset="0" />
      <stop
         id="stop3388"
         style="stop-color:#000000;stop-opacity:1"
         offset="1" />
    </linearGradient>
    <linearGradient
       id="linearGradient3252">
      <stop
         id="stop3254"
         style="stop-color:#ffffff;stop-opacity:1"
         offset="0" />
      <stop
         id="stop3256"
         style="stop-color:#7f7fff;stop-opacity:0"
         offset="1" />
    </linearGradient>
  </defs>
  <path
     d="M 89.731475,43.639521 C 68.529866,43.628351 52.684605,43.619991 23.198889,43.604461 C 23.213559,31.495761 38.128776,21.676268 56.491771,21.685938 C 74.854765,21.695638 89.746158,31.530821 89.731475,43.639521 L 89.731475,43.639521 z"
     id="path3830"
     style="fill:#e6e6e3;fill-opacity:1;fill-rule:evenodd;stroke:#e1e0e6;stroke-width:0.58449656px;stroke-linecap:butt;stroke-linejoin:miter;stroke-opacity:1" />
  <use
     transform="translate(-0.7619956,44.767246)"
     id="use2479"
     x="0"
     y="0"
     width="100"
     height="100"
     xlink:href="#path3830" />
  <path
     d="M 92.596291,22.962013 C 92.596972,26.841363 89.452328,29.986549 85.572978,29.986549 C 81.693628,29.986549 78.548984,26.841363 78.549665,22.962013 C 78.548984,19.082664 81.693628,15.937469 85.572978,15.937469 C 89.452328,15.937469 92.596972,19.082664 92.596291,22.962013 L 92.596291,22.962013 z"
     id="path3876"
     style="fill:#e6e6e3;fill-opacity:1;fill-rule:evenodd;stroke:#e1e0e6;stroke-width:0.21534985px;stroke-linecap:butt;stroke-linejoin:miter;stroke-opacity:1" />
  <use
     transform="translate(-28.765336,21.907375)"
     id="use2473"
     x="0"
     y="0"
     width="100"
     height="100"
     xlink:href="#path3876" />
  <use
     transform="matrix(1.1602579,0,0,1.1602579,-71.625608,40.325402)"
     id="use2475"
     x="0"
     y="0"
     width="100"
     height="100"
     xlink:href="#path3876" />
  <use
     transform="matrix(1.1201934,0,0,1.1201934,-39.14604,64.771989)"
     id="use2477"
     x="0"
     y="0"
     width="100"
     height="100"
     xlink:href="#path3876" />
  <path
     d="M 28.628839,67.847727 C 55.161874,90.189634 55.16094,90.188844 55.16094,90.188844"
     id="path3824"
     style="fill:none;stroke:#e1e0e6;stroke-width:2.80033398;stroke-linecap:round;stroke-linejoin:miter;stroke-miterlimit:4;stroke-dasharray:5.60066808, 2.80033403;stroke-dashoffset:0;stroke-opacity:1" />
  <path
     d="M 85.037554,23.089242 C 55.710374,45.604133 55.711411,45.60334 55.711411,45.60334"
     id="path3826"
     style="fill:none;stroke:#e1e0e6;stroke-width:2.33361173;stroke-linecap:round;stroke-linejoin:miter;stroke-miterlimit:4;stroke-dasharray:4.6672234, 2.3336117;stroke-dashoffset:0;stroke-opacity:1" />
  <path
     d="M 56.566913,53.349558 C 56.566913,80.828988 56.566913,80.828025 56.566913,80.828025"
     id="path3854"
     style="fill:#e6e6e3;fill-opacity:1;fill-rule:evenodd;stroke:#e1e0e6;stroke-width:2.80033398;stroke-linecap:round;stroke-linejoin:miter;stroke-miterlimit:4;stroke-dasharray:5.60066808, 2.80033403;stroke-dashoffset:0;stroke-opacity:1" />
  <path
     d="M 48.400909,46.421662 C 48.400909,73.901088 48.400909,73.900126 48.400909,73.900126"
     id="path3818"
     style="fill:none;stroke:#000000;stroke-width:2.80033398;stroke-linecap:round;stroke-linejoin:miter;stroke-miterlimit:4;stroke-dasharray:5.60066808, 2.80033403;stroke-dashoffset:0;stroke-opacity:1" />
  <g
     transform="matrix(0.7197884,3.7935934e-4,-5.7530333e-4,0.4746339,12.123199,8.4299146)"
     id="g2239">
    <path
       d="M 96.52352,59.509204 C 67.068177,59.509204 45.054405,59.509204 4.089979,59.509204 C 4.089979,33.997547 24.795092,13.292434 50.306749,13.292434 C 75.818406,13.292434 96.52352,33.997547 96.52352,59.509204 z"
       id="path2241"
       style="fill:url(#linearGradient2257);fill-opacity:1;fill-rule:evenodd;stroke:#000000;stroke-width:1px;stroke-linecap:butt;stroke-linejoin:miter;stroke-opacity:1" />
    <path
       d="M 49.946865,59.191757 L 16.406253,44.970273 M 50.235165,58.898277 L 50.306755,21.911679 M 50.611846,59.057108 L 84.207245,44.970273 M 87.000381,59.26463 L 49.946865,59.337502 L 13.613118,59.26463 M 24.360434,32.852106 L 50.10289,58.954052 L 36.264704,24.755004 M 64.348795,24.755004 L 50.51061,58.954052 L 76.253065,32.852106"
       id="path2243"
       style="fill:none;stroke:#000000;stroke-width:0.64609098;stroke-linecap:round;stroke-linejoin:round;stroke-miterlimit:4;stroke-dasharray:none;stroke-dashoffset:0;stroke-opacity:1" />
    <text
       x="16.601501"
       y="32.732803"
       id="text2245"
       xml:space="preserve"
       style="font-size:6.36857796px;font-style:normal;font-weight:normal;fill:#000000;fill-opacity:1;stroke:none;font-family:Bitstream Vera Sans"><tspan
         x="16.601501"
         y="32.732803"
         id="tspan2247">45</tspan></text>
    <text
       x="45.530113"
       y="19.400709"
       id="text2249"
       xml:space="preserve"
       style="font-size:6.36857796px;font-style:normal;font-weight:normal;fill:#000000;fill-opacity:1;stroke:none;font-family:Bitstream Vera Sans"><tspan
         x="45.530113"
         y="19.400709"
         id="tspan2251">90</tspan></text>
    <text
       x="72.773872"
       y="32.981483"
       id="text2253"
       xml:space="preserve"
       style="font-size:6.36857796px;font-style:normal;font-weight:normal;fill:#000000;fill-opacity:1;stroke:none;font-family:Bitstream Vera Sans"><tspan
         x="72.773872"
         y="32.981483"
         id="tspan2255">135</tspan></text>
  </g>
  <use
     transform="translate(0.1904989,45.14824)"
     id="use2471"
     x="0"
     y="0"
     width="100"
     height="100"
     xlink:href="#g2239" />
  <path
     d="M 20.462842,60.919824 C 46.995877,83.261735 46.99494,83.260945 46.99494,83.260945"
     id="path3820"
     style="fill:none;stroke:#000000;stroke-width:2.80033398;stroke-linecap:round;stroke-linejoin:miter;stroke-miterlimit:4;stroke-dasharray:5.60066808, 2.80033403;stroke-dashoffset:0;stroke-opacity:1" />
  <path
     d="M 76.871553,16.161343 C 47.544371,38.676233 47.545408,38.675439 47.545408,38.675439"
     id="path3822"
     style="fill:none;stroke:#000000;stroke-width:2.33361173;stroke-linecap:round;stroke-linejoin:miter;stroke-miterlimit:4;stroke-dasharray:4.6672234, 2.3336117;stroke-dashoffset:0;stroke-opacity:1" />
  <g
     transform="matrix(0.5663055,0,0,0.5663055,56.64351,2.3132157)"
     id="g3558">
    <path
       d="M 49.066773,24.22879 C 49.067973,31.079065 43.515064,36.632947 36.664788,36.632947 C 29.814513,36.632947 24.261604,31.079065 24.262803,24.22879 C 24.261603,17.378514 29.814513,11.824633 36.664788,11.824633 C 43.515064,11.824633 49.067972,17.378514 49.066773,24.22879 L 49.066773,24.22879 L 49.066773,24.22879 z"
       id="path3560"
       style="fill:#0000ff;fill-opacity:1;fill-rule:evenodd;stroke:#000000;stroke-width:0.38027155px;stroke-linecap:butt;stroke-linejoin:miter;stroke-opacity:1" />
    <path
       d="M 45.562914,32.95223 C 40.719885,37.796953 32.866199,37.797641 28.022324,32.95373 C 23.178446,28.109853 23.179135,20.256167 28.023824,15.41314 C 32.866852,10.568415 40.720538,10.567727 45.564415,15.41164 C 50.40829,20.255516 50.407602,28.109203 45.562915,32.952231 L 45.562915,32.952231 L 45.562914,32.95223 z"
       id="path3562"
       style="opacity:0.71739131;fill:url(#linearGradient3566);fill-opacity:1;fill-rule:evenodd;stroke:none" />
    <path
       d="M 39.147988,19.481422 C 39.148661,23.326315 36.031948,26.443576 32.187053,26.443576 C 28.342159,26.443576 25.225445,23.326315 25.226118,19.481422 C 25.225445,15.636527 28.342159,12.519268 32.187053,12.519268 C 36.031948,12.519268 39.148661,15.636527 39.147988,19.481422 L 39.147988,19.481422 z"
       id="path3564"
       style="fill:url(#radialGradient3568);fill-opacity:1;fill-rule:evenodd;stroke:none" />
  </g>
  <use
     transform="matrix(1.146903,0,0,1.146903,-69.759414,41.364044)"
     id="use2458"
     x="0"
     y="0"
     width="100"
     height="100"
     xlink:href="#g3558" />
  <use
     transform="matrix(1.146903,0,0,1.146903,-40.422581,64.604912)"
     id="use2460"
     x="0"
     y="0"
     width="100"
     height="100"
     xlink:href="#g3558" />
  <use
     transform="translate(-29.146334,21.716876)"
     id="use2456"
     x="0"
     y="0"
     width="100"
     height="100"
     xlink:href="#g3558" />
  <rect
     width="93.276093"
     height="93.536499"
     x="4.9849653"
     y="5.0202103"
     id="rect4726"
     style="fill:none;stroke:#282828;stroke-width:3.20253754;stroke-linecap:round;stroke-linejoin:round;stroke-miterlimit:4;stroke-dasharray:6.40507497, 3.20253749;stroke-dashoffset:0;stroke-opacity:1" />
  <rect
     width="93.46907"
     height="93.729485"
     x="1.8452083"
     y="1.8143114"
     id="rect4688"
     style="fill:none;stroke:#000000;stroke-width:3.20915413;stroke-linecap:round;stroke-linejoin:round;stroke-miterlimit:4;stroke-dasharray:6.41830834, 3.20915417;stroke-dashoffset:0;stroke-opacity:1" />
</svg>
